X:316
T:Konvulsionslten
T:Vargtimmen
C:Anders Norudde (Stake)
Z:Andreas Sumerauer <andreas@dausenkunz.de> abcusers 2002-9-26
N:Henrik Norbeck <henrik.norbeck@mailbox.swipnet.se> writes:
D:CD by Bl Bergens Borduner (name)
D:Hedningarna "Tr"
M:4/4
L:1/8
Q:1/4=170
K:Ador
A-|ABcA B2 B A-|ABcA B2 B A-|ABcd e2 dc|1 Bc B2 A3:|2 Bc B2 A4|
|: gege g2 e f-|fdfd f2 d g-|gega- a g fe-| efg a-a aaa|
agf e2 c2g|gfe d2 B2 B|ABcd e2 dc|Bc B2 A4 :|
